assets/icons/qvision/mark_email_read.svg

<svg xmlns="http://www.w3.org/2000/svg" enable-background="new 0 0 24 24" height="24" viewBox="0 0 24 24" width="24"><g><rect fill="none" height="24" width="24" x="0"/><path d="M12,19c0-3.87,3.13-7,7-7c1.08,0,2.09,0.25,3,0.68V6c0-1.1-0.9-2-2-2H4C2.9,4,2,4.9,2,6v12c0,1.1,0.9,2,2,2h8.08 C12.03,19.67,12,19.34,12,19z M4,6l8,5l8-5v2l-8,5L4,8V6z M17.34,22l-3.54-3.54l1.41-1.41l2.12,2.12l4.24-4.24L23,16.34L17.34,22z"/></g></svg>

<svg width="24" height="24" viewBox="0 0 24 24" fill="none" xmlns="http://www.w3.org/2000/svg">
<g clip-path="url(#clip0_147_1883)">
<path d="M12 19C12 15.13 15.13 12 19 12C20.08 12 21.09 12.25 22 12.68V6C22 4.9 21.1 4 20 4H4C2.9 4 2 4.9 2 6V18C2 19.1 2.9 20 4 20H12.08C12.03 19.67 12 19.34 12 19ZM4 6L12 11L20 6V8L12 13L4 8V6ZM17.34 22L13.8 18.46L15.21 17.05L17.33 19.17L21.57 14.93L23 16.34L17.34 22Z" fill="#323232"/>
</g>
<defs>
<clipPath id="clip0_147_1883">
<rect width="24" height="24" fill="white"/>
</clipPath>
</defs>
</svg>
